app/assets/images/documents.svg

<svg width="40" height="50" viewBox="0 0 40 50" fill="none" xmlns="http://www.w3.org/2000/svg">
<path d="M33.3879 0H9.28632C6.81523 0 4.79549 2.05923 4.7842 4.59278H4.5134C2.03103 4.59278 0 6.66358 0 9.22027V45.3725C0 47.9176 2.01975 50 4.5134 50H30.7137C33.196 50 35.2045 47.9408 35.2158 45.4072H35.4866C37.969 45.4072 40 43.3364 40 40.7797V6.7677C40 3.031 37.0324 0 33.3879 0ZM32.1693 45.3609C32.1693 46.1823 31.5148 46.8533 30.7137 46.8533H4.5134C3.71227 46.8533 3.05783 46.1823 3.05783 45.3609V9.2087C3.05783 8.38732 3.71227 7.71633 4.5134 7.71633H24.9817V13.6974C24.9817 14.565 25.67 15.2591 26.5049 15.2591H32.158V45.3609H32.1693ZM28.0395 12.1356V9.99537L30.0705 12.1356H28.0395ZM36.9422 40.7682C36.9422 41.5895 36.2877 42.2605 35.4866 42.2605H35.2158V13.6974C35.2158 13.6627 35.2045 13.6395 35.1932 13.6048C35.1819 13.466 35.1594 13.3387 35.1142 13.2115C35.103 13.1652 35.0917 13.1189 35.0691 13.0727C35.0014 12.9107 34.8999 12.7487 34.7757 12.6215L27.5882 5.07867C27.4528 4.93984 27.3061 4.84729 27.1368 4.76631C27.0917 4.74317 27.0465 4.73161 26.9901 4.70847C26.8547 4.66219 26.7193 4.62749 26.5839 4.62749C26.5501 4.62749 26.5275 4.60435 26.4937 4.60435H7.84203C7.8646 3.79454 8.49647 3.14669 9.2976 3.14669H33.3992C35.3625 3.14669 36.9535 4.77788 36.9535 6.79084V40.7682H36.9422Z" fill="black"/>
<path d="M18.0648 43.6834C14.1833 43.6834 11.0239 40.4442 11.0239 36.4645V17.5034C11.0239 14.7732 13.1904 12.552 15.8533 12.552C18.5162 12.552 20.6826 14.7732 20.6826 17.5034V33.422C20.6826 34.8912 19.5091 36.0943 18.0761 36.0943C16.6431 36.0943 15.4696 34.8912 15.4696 33.422V19.0189C15.4696 18.3826 15.9774 17.862 16.598 17.862C17.2186 17.862 17.7263 18.3826 17.7263 19.0189V33.422C17.7263 33.6186 17.8843 33.7806 18.0761 33.7806C18.2679 33.7806 18.4259 33.6186 18.4259 33.422V17.5034C18.4259 16.0573 17.275 14.8657 15.8533 14.8657C14.4428 14.8657 13.2806 16.0458 13.2806 17.5034V36.4645C13.2806 39.1716 15.4245 41.3697 18.0648 41.3697C20.7052 41.3697 22.849 39.1716 22.849 36.4645V19.0189C22.849 18.3826 23.3568 17.862 23.9774 17.862C24.598 17.862 25.1057 18.3826 25.1057 19.0189V36.453C25.1057 40.4442 21.9464 43.6834 18.0648 43.6834Z" fill="black"/>
</svg>

<svg width="40" height="50" fill="none" xmlns="http://www.w3.org/2000/svg"><path d="M33.388 0H9.286c-2.47 0-4.49 2.06-4.502 4.593h-.27C2.03 4.593 0 6.663 0 9.22v36.153C0 47.918 2.02 50 4.513 50h26.2c2.483 0 4.492-2.06 4.503-4.593h.27c2.483 0 4.514-2.07 4.514-4.627V6.768C40 3.03 37.032 0 33.388 0zm-1.219 45.36c0 .822-.654 1.493-1.455 1.493h-26.2c-.802 0-1.456-.67-1.456-1.492V9.209c0-.822.654-1.493 1.455-1.493h20.469v5.981c0 .868.688 1.562 1.523 1.562h5.653v30.102h.011zm-4.13-33.224v-2.14l2.031 2.14h-2.03zm8.903 28.632c0 .822-.654 1.492-1.455 1.492h-.271V13.698c0-.034-.011-.057-.023-.092a1.517 1.517 0 00-.079-.394.657.657 0 00-.045-.138 1.469 1.469 0 00-.293-.452L27.588 5.08a1.515 1.515 0 00-.451-.313c-.045-.023-.09-.034-.147-.058a1.268 1.268 0 00-.406-.08c-.034 0-.056-.024-.09-.024H7.842c.023-.81.654-1.457 1.456-1.457h24.101c1.963 0 3.554 1.63 3.554 3.644v33.977h-.01z" fill="#000"/><path d="M18.064 43.683c-3.881 0-7.04-3.239-7.04-7.218V17.503c0-2.73 2.166-4.951 4.829-4.951s4.83 2.221 4.83 4.951v15.919c0 1.47-1.174 2.672-2.607 2.672-1.433 0-2.607-1.203-2.607-2.672V19.019c0-.636.508-1.157 1.129-1.157.62 0 1.128.52 1.128 1.157v14.403c0 .197.158.359.35.359.191 0 .35-.162.35-.359V17.503c0-1.446-1.151-2.637-2.573-2.637-1.41 0-2.573 1.18-2.573 2.637v18.962c0 2.707 2.144 4.905 4.784 4.905 2.64 0 4.785-2.198 4.785-4.905V19.018c0-.636.507-1.157 1.128-1.157.62 0 1.128.52 1.128 1.157v17.434c0 3.991-3.16 7.23-7.04 7.23z" fill="#89DDEF"/></svg>
